X:37
T:Indian Brook
R:jig
C:Paul S. Cranford
O:Cape Breton Island
S:http://www.cranfordpub.com
D:currently unrecorded
B:currently unpublished in book form
Z:psc, (re-formatted,updated 9/17/04)
N:
H:                                                        copyrights Cranford Publications, SOCAN
L:1/8
M:6/8
Q:300
K:C
cde fed|ege dcB|cGG Bcd|cGG G2 B|
cde fed|(3(efge) dcB|cGG Bcd|1c3 c2 G:|2~c3 c(3(def)||
|:gcc ecc|BGG BGG|gcc edc|Bcd c2 e|
gcc ecc|BGG BGG|ABc Bcd|1gce def:|2cfe dcB|]
